X: 453
T: DRINKING SONG.	 op. 74
C: Fryderyk Chopin
%%abc-version 2.0
%%abcx-abcm2ps-target-version 5.9.1 (29 Sep 2008)
%%abc-creator hum2abc beta
%%abcx-conversion-date 2021/10/03 11:23:47
%%abc-edited-by Jędrzej Mróz
%%abc-edited-by Mateusz Mrugas
%%abcx-initial-encoding-date 2020-02-01
%%humdrum-veritas 1117499370
%%humdrum-veritas-data 4272552479
%%linebreak <none>
%%barnumbers 0
L: 1/4
M: 3/4
N: Derived from 074-1c-LW-004.krn
P: 17 | POLISH SONGS | BY | WITWICKI, ZALESKI, MICKIEWICZ, ETC, | FOR | A SOPRANO OR TENOR VOICE | WITH ACCOMPANIMENT FOR THE | Pianoforte
Q: "VIVACE. M.M. [half-dot] = 63."
V: 1 clef=treble
V: 2 clef=bass
V: 3 clef=bass
K: Eb
[V:1] z3 | 
[V:2] [K:clef=bass]B,B,{/=A,G,}F, | 
[V:3] [B,,B,,,][B,,B,,,]{/=A,,G,,}F,, | 
[V:1] z3 | 
[V:2] B,B,{/=A,G,}F, | 
[V:3] [B,,B,,,][B,,B,,,]{/=A,,G,,}F,, | 
[V:1] z3 | 
[V:2] B,B,{/=A,G,}F, | 
[V:3] [B,,B,,,][B,,B,,,]{/=A,,G,,}F,, | 
[V:1] z3 ||  
[V:2] B,B,[K:clef=treble]!accent![_ADB,] ||  
[V:3] [B,,B,,,][B,,B,,,]!accent![B,,B,,,] ||  
[V:1] G/ F<EF/ | 
[V:2] [GEB,][GEB,][GEB,] | 
[V:3] [E,E,,][E,E,,][E,E,,] | 
[V:1] G/ A<Bc/ | 
[V:2] [GEB,][GEB,][GEB,] | 
[V:3] [E,,E,][E,,E,][E,,E,] | 
[V:1] B/ c/Be | 
[V:2] [GEB,][GEB,][GEB,] | 
[V:3] [E,,E,][E,,E,][E,,E,] | 
[V:1] !fermata!f3 | 
[V:2] !fermata![B3F3D3B,3] | 
[V:3] [B,,3B,,,3] | 
[V:1] A/ c/A{/AG}!accent!F | 
[V:2] z[ADB,][ADB,] | 
[V:3] B,,3 | 
[V:1] G/ B/G{/GF}!accent!E | 
[V:2] z[GEB,][GEB,] | 
[V:3] E,3 | 
[V:1] F/ G/Ac | 
[V:2] z[ADB,][ADB,] | 
[V:3] B,,3 | 
[V:1] B3 | 
[V:2] z[GEB,]!accent![G_DB,] | 
[V:3] E,2=E, | 
[V:1] A/ c/A{/AG}!accent!F | 
[V:2] [AFC][AF_C]!accent![AFB,] | 
[V:3] F,_E,D, | 
[V:1] G/ B/G{/GF}!accent!E | 
[V:2] [GEB,][GEC]!accent![GEB,] | 
[V:3] E,C,G,, | 
[V:1] F/ c<!accent!BD/ | 
[V:2] [FEC][ADB,][ADB,] | 
[V:3] A,,B,,B,, | 
[V:1] E3 | 
[V:2] [GEB,]zz | 
[V:3] [E,E,,][B,E,]!accent![B,E,] | 
[V:1] z3 | 
[V:2] B/f<bg/ | 
[V:3] [DB,A,E,][DB,A,E,][DB,A,E,] | 
[V:1] z3 | 
[V:2] f/B<f!trill!e/ | 
[V:3] [DB,A,E,][DB,A,E,][EB,G,E,] | 
[V:1] z3 | 
[V:2] B/f/b/=a/b/g/ | 
[V:3] [DB,A,E,][DB,A,E,][DB,A,E,] | 
[V:1] z3 | 
[V:2] f/B/eg/=a/ | 
[V:3] [DB,A,E,][EB,G,E,][EB,G,E,] | 
[V:1] z3 | 
[V:2] b/B/eg/=a/ | 
[V:3] [DB,A,E,][EB,G,E,][EB,G,E,] | 
[V:1] z3 | 
[V:2] b/B/eg/=a/ | 
[V:3] [DB,A,E,][EB,G,E,][EB,G,E,] | 
[V:1] z3 | 
[V:2] b/c'/bf/=g/ | 
[V:3] [DB,A,E,][DB,A,E,][DB,A,E,] | 
[V:1] z3 | 
[V:2] e[ebge']z[K:clef=bass] | 
[V:3] [EB,G,E,][E,E,,]z | 
[V:1] z3 | 
[V:2] B,B,{/=A,G,}F, | 
[V:3] [B,,B,,,][B,,B,,,]{/=A,,G,,}F,, | 
[V:1] z3 | 
[V:2] B,B,{/=A,G,}F, | 
[V:3] [B,,B,,,][B,,B,,,]{/=A,,G,,}F,, | 
[V:1] z3 | 
[V:2] B,B,{/=A,G,}F, | 
[V:3] [B,,B,,,][B,,B,,,]{/=A,,G,,}F,, | 
[V:1] x3 ||  
[V:2] B,B,[K:clef=treble]!accent![_ADB,] ||  
[V:3] [B,,B,,,][B,,B,,,]!accent![B,,B,,,] ||  
[V:1] G/ F<EF/ | 
[V:2] [GEB,][GEB,][GEB,] | 
[V:3] [E,E,,][E,E,,][E,E,,] | 
[V:1] G/ A<Bc/ | 
[V:2] [GEB,][GEB,][GEB,] | 
[V:3] [E,,E,][E,,E,][E,,E,] | 
[V:1] B/ c/Be | 
[V:2] [GEB,][GEB,][GEB,] | 
[V:3] [E,,E,][E,,E,][E,,E,] | 
[V:1] !fermata!f3 | 
[V:2] [B3F3-D3-B,3-] | 
[V:3] !fermata![B,,3B,,,3]- | 
[V:1] A/ c/A{/AG}!accent!F | 
[V:2] [FDB,][ADB,][ADB,] | 
[V:3] [B,,3B,,,3] | 
[V:1] G/ B/G{/GF}!accent!E | 
[V:2] z[GEB,]!accent![GEB,] | 
[V:3] E,3 | 
[V:1] F/ G/Ac | 
[V:2] z[ADB,][ADB,] | 
[V:3] B,,3 | 
[V:1] !accent!B3 | 
[V:2] z[GEB,]!accent![G_DB,] | 
[V:3] E,2=E, | 
[V:1] A/ c/A{/AG}!accent!F | 
[V:2] [AFC][AF_C]!accent![AFB,] | 
[V:3] F,_E,D, | 
[V:1] G/ B/G{/GF}!accent!E | 
[V:2] [GEB,][GEC]!accent![GEB,] | 
[V:3] E,C,G,, | 
[V:1] F/ c<!accent!BD/ | 
[V:2] [FEC][ADB,][ADB,] | 
[V:3] A,,B,,B,, | 
[V:1] E3 | 
[V:2] [GEB,]zz | 
[V:3] [E,E,,][B,E,]!accent![B,E,] | 
[V:1] z3 | 
[V:2] B/f<bg/ | 
[V:3] [DB,A,E,][DB,A,E,][DB,A,E,] | 
[V:1] z3 | 
[V:2] f/B<f!trill!e/ | 
[V:3] [DB,A,E,][DB,A,E,][EB,G,E,] | 
[V:1] z3 | 
[V:2] B/f/b/=a/b/g/ | 
[V:3] [DB,A,E,][DB,A,E,][DB,A,E,] | 
[V:1] z3 | 
[V:2] f/B/eg/=a/ | 
[V:3] [DB,A,E,][EB,G,E,][EB,G,E,] | 
[V:1] z3 | 
[V:2] b/B/eg/=a/ | 
[V:3] [DB,A,E,][EB,G,E,][EB,G,E,] | 
[V:1] z3 | 
[V:2] b/B/eg/=a/ | 
[V:3] [DB,A,E,][EB,G,E,][EB,G,E,] | 
[V:1] z3 | 
[V:2] b/c'/bf/=g/ | 
[V:3] [DB,A,E,][DB,A,E,][DB,A,E,] | 
[V:1] z3 ||  
[V:2] e[ebge']z ||  
[V:3] [EB,G,E,][E,E,,]z ||  
[V:1] G/ F<EF/ | 
[V:2] [GEB,][GEB,][GEB,] | 
[V:3] [E,E,,][E,E,,][E,E,,] | 
[V:1] G/ A<Bc/ | 
[V:2] [GEB,][GEB,][GEB,] | 
[V:3] [E,,E,][E,,E,][E,,E,] | 
[V:1] B/ c/Be | 
[V:2] [GEB,][GEB,][GEB,] | 
[V:3] [E,,E,][E,,E,][E,,E,] | 
[V:1] !fermata!f3 | 
[V:2] !fermata![B3F3-D3-B,3-] | 
[V:3] !fermata![B,,3B,,,3]- | 
[V:1] A/ c/A{/AG}!accent!F | 
[V:2] [FDB,][ADB,][ADB,] | 
[V:3] [B,,3B,,,3] | 
[V:1] G/ B/G{/GF}!accent!E | 
[V:2] z[GEB,]!accent![GEB,] | 
[V:3] E,3 | 
[V:1] F/ G/Ac | 
[V:2] z[ADB,][ADB,] | 
[V:3] B,,3 | 
[V:1] !accent!B3 | 
[V:2] z[GEB,]!accent![G_DB,] | 
[V:3] E,2=E, | 
[V:1] A/ c/A{/AG}!accent!F | 
[V:2] [AFC][AF_C]!accent![AFB,] | 
[V:3] F,_E,D, | 
[V:1] G/ B/G{/GF}!accent!E | 
[V:2] [GEB,][GEC]!accent![GEB,] | 
[V:3] E,C,G,, | 
[V:1] F/ c<!accent!BD/ | 
[V:2] [FEC][ADB,][ADB,] | 
[V:3] A,,B,,B,, | 
[V:1] E3 | 
[V:2] [GEB,]zz | 
[V:3] [E,E,,][B,E,]!accent![B,E,] | 
[V:1] z3 | 
[V:2] B/f<bg/ | 
[V:3] [DB,A,E,][DB,A,E,][DB,A,E,] | 
[V:1] z3 | 
[V:2] f/B<f!trill!e/ | 
[V:3] [DB,A,E,][DB,A,E,][EB,G,E,] | 
[V:1] z3 | 
[V:2] B/f/b/=a/b/g/ | 
[V:3] [DB,A,E,][DB,A,E,][DB,A,E,] | 
[V:1] z3 | 
[V:2] f/B/eg/=a/ | 
[V:3] [DB,A,E,][EB,G,E,][EB,G,E,] | 
[V:1] z3 | 
[V:2] b/B/eg/=a/ | 
[V:3] [DB,A,E,][EB,G,E,][EB,G,E,] | 
[V:1] z3 | 
[V:2] b/B/eg/=a/ | 
[V:3] [DB,A,E,][EB,G,E,][EB,G,E,] | 
[V:1] z3 | 
[V:2] b/c'/bf/=g/ | 
[V:3] [DB,A,E,][DB,A,E,][DB,A,E,] | 
[V:1] z3 |]  
[V:2] e[ebge']z |]  
[V:3] [EB,G,E,][E,E,,]z |]
